X:5101
T:The Kesh Hill
M:4/4
R:Reel
L:1/8
Q:180
C:Aidan Crossey
K:D
|:fage d2de|fdge fage|fage d2de|fdec d2de:||
|:fagb agfe|fagb ~a2 fg|afge fdec|Addc d2fg:||
